lib/logotmp/nrk-logo-nrk-rogaland-title-below.svg

<svg width="74" height="41" viewBox="0 0 74 41" fill="none" xmlns="http://www.w3.org/2000/svg">
<path d="M0 17.9976V5.99865H4V17.9976H0ZM9.24381 7.90834L11.5081 17.9976H7.19917L4.49549 5.99865H6.91217C7.46635 5.99146 8.00406 6.18681 8.4245 6.54795C8.84562 6.89394 9.08495 7.37426 9.24381 7.90834ZM12 17.9976V5.99865H16V17.9976H12ZM19.0105 10.5617C18.5862 10.5658 18.1687 10.4548 17.8025 10.2405C17.4412 10.0317 17.1411 9.73152 16.9323 9.37016C16.7178 9.00389 16.6068 8.58632 16.611 8.16188C16.6061 7.74002 16.7172 7.32494 16.9323 6.96199C17.1433 6.60455 17.4431 6.30765 17.8025 6.10008C18.1689 5.88606 18.5862 5.77507 19.0105 5.77894C19.4322 5.7744 19.8471 5.88549 20.2102 6.10008C20.566 6.30947 20.8626 6.60612 21.072 6.96199C21.2868 7.32504 21.3979 7.74005 21.3933 8.16188C21.3973 8.58629 21.2863 9.00379 21.072 9.37016C20.8649 9.72993 20.5679 10.0298 20.2102 10.2405C19.8471 10.4555 19.4324 10.5666 19.0105 10.5617ZM22 17.9976V5.99865H26V17.9976H22ZM30.9737 12.5558C30.9848 12.5674 31.0693 12.7054 31.2272 12.9698C31.3851 13.2342 31.5906 13.5722 31.8439 13.9838C32.0974 14.3953 32.3649 14.8318 32.6463 15.2936C32.9278 15.7553 33.1926 16.1919 33.4408 16.6033C33.6881 17.0147 33.9697 17.4795 34.2857 17.9976H29.9598C29.6893 17.5582 29.4441 17.161 29.2245 16.8061C29.0048 16.4512 28.7713 16.0681 28.5238 15.6569C28.2758 15.2461 28.0306 14.8461 27.7882 14.457C27.5458 14.0679 27.3375 13.7272 27.1633 13.4346C26.9883 13.1419 26.8671 12.9447 26.7997 12.8431C26.6325 12.591 26.5336 12.2999 26.5127 11.9981C26.5294 11.7085 26.6226 11.4285 26.7828 11.1867C26.8503 11.074 26.9743 10.874 27.1545 10.5867C27.3348 10.2994 27.546 9.95861 27.7882 9.56428C28.0304 9.16995 28.2756 8.76716 28.5238 8.35593C28.772 7.9447 29.0055 7.55879 29.2245 7.19826C29.4445 6.83811 29.6897 6.43814 29.9598 5.99837H34.2857L30.9396 11.4571C30.8361 11.6191 30.7777 11.8059 30.7706 11.9981C30.7818 12.1999 30.8528 12.3939 30.9737 12.5558Z" fill="white"/>
<path d="M5.88245 30.0485C6.11335 30.0119 6.33299 29.9612 6.547 29.8936C7.00318 29.7472 7.40022 29.5248 7.73813 29.2263C8.07604 28.9278 8.34074 28.5561 8.53222 28.1112C8.72371 27.6663 8.81945 27.1509 8.81945 26.5652C8.81945 25.9119 8.69273 25.315 8.4393 24.7743C8.18587 24.2337 7.76911 23.8028 7.18903 23.4818C6.60895 23.1608 5.82894 23.0003 4.84901 23.0003H0V34.9961H1.75713V30.4005H4.34214L7.33264 34.9961H9.39389L6.58924 30.8398L5.88526 30.0485H5.88245ZM5.91342 24.6983C6.28512 24.8503 6.56108 25.0869 6.7413 25.4079C6.92152 25.7289 7.01163 26.1372 7.01163 26.6328C7.01163 27.1847 6.90181 27.6325 6.68217 27.976C6.46252 28.3196 6.14714 28.5674 5.73602 28.7194C5.3249 28.8715 4.83774 28.9475 4.27456 28.9475H1.75713V24.4702H4.4773C5.06301 24.4702 5.54172 24.5462 5.91342 24.6983ZM17.0391 26.7342C16.3914 26.3738 15.6283 26.1935 14.7498 26.1935C13.8712 26.1935 13.1025 26.3794 12.4435 26.7511C11.7846 27.1228 11.2721 27.6465 10.906 28.3224C10.54 28.9982 10.3569 29.7979 10.3569 30.7215C10.3569 31.6451 10.5287 32.442 10.8722 33.1122C11.2158 33.7824 11.7086 34.2921 12.3506 34.6413C12.9926 34.9905 13.736 35.165 14.5808 35.165C15.4256 35.165 16.2366 34.9792 16.9124 34.6075C17.5882 34.2358 18.1148 33.7064 18.4921 33.0193C18.8694 32.3322 19.0581 31.5212 19.0581 30.5864C19.0581 29.6515 18.8835 28.9222 18.5344 28.2632C18.1852 27.6043 17.6868 27.0946 17.0391 26.7342ZM16.9377 32.3942C16.7181 32.8673 16.4112 33.2192 16.0169 33.4501C15.6227 33.6811 15.1722 33.7965 14.6653 33.7965C14.1584 33.7965 13.7191 33.6782 13.3474 33.4417C12.9757 33.2052 12.6829 32.8504 12.4689 32.3773C12.2549 31.9042 12.1479 31.3185 12.1479 30.6202C12.1479 29.9218 12.2549 29.3643 12.4689 28.9137C12.6829 28.4632 12.9842 28.1253 13.3728 27.9C13.7614 27.6747 14.226 27.5621 14.7667 27.5621C15.1947 27.5621 15.5636 27.6325 15.8733 27.7733C16.1831 27.9141 16.4421 28.1196 16.6505 28.3899C16.8589 28.6603 17.0138 28.9841 17.1151 29.3614C17.2165 29.7388 17.2672 30.1583 17.2672 30.6202C17.2672 31.3298 17.1574 31.9211 16.9377 32.3942ZM26.5682 26.4132C26.326 26.3456 26.0641 26.2921 25.7825 26.2527C25.5009 26.2132 25.1968 26.1935 24.8702 26.1935C24.307 26.1935 23.772 26.3005 23.2651 26.5145C22.7582 26.7286 22.3049 27.0355 21.905 27.4354C21.5051 27.8352 21.1926 28.3308 20.9673 28.9222C20.742 29.5135 20.6294 30.1921 20.6294 30.9581C20.6294 31.8141 20.773 32.5547 21.0602 33.1798C21.3475 33.805 21.767 34.2893 22.3189 34.6328C22.8709 34.9764 23.541 35.1481 24.3295 35.1481C24.9377 35.1481 25.5403 35.0299 26.1373 34.7933C26.4612 34.6638 26.7822 34.4808 27.1004 34.2471V34.7089C27.1004 35.1369 27.0469 35.5114 26.9399 35.8324C26.8329 36.1534 26.6695 36.4238 26.4499 36.6434C26.2302 36.863 25.943 37.0264 25.5882 37.1334C25.2334 37.2404 24.8026 37.2939 24.2957 37.2939C23.9578 37.2939 23.6114 37.2742 23.2566 37.2347C22.9018 37.1953 22.5442 37.1277 22.1838 37.032C21.8233 36.9363 21.4685 36.8152 21.1194 36.6687L21.3052 38.1555C21.6093 38.2794 21.9275 38.3836 22.2598 38.4681C22.5921 38.5526 22.9384 38.6174 23.2989 38.6624C23.6593 38.7075 24.031 38.73 24.414 38.73C25.3714 38.73 26.1767 38.5695 26.83 38.2485C27.4833 37.9275 27.9761 37.4825 28.3084 36.9137C28.6407 36.3449 28.8068 35.6888 28.8068 34.9454V26.1935L27.1539 26.6187C26.968 26.5399 26.7737 26.4695 26.5682 26.4132ZM26.8807 33.1798C26.6555 33.3094 26.4386 33.4164 26.2302 33.5008C26.0219 33.5853 25.8191 33.6501 25.622 33.6951C25.4249 33.7402 25.2193 33.7627 25.0053 33.7627C24.4196 33.7627 23.9325 33.6529 23.5439 33.4333C23.1553 33.2136 22.868 32.8813 22.6822 32.4364C22.4963 31.9915 22.4034 31.4199 22.4034 30.7215C22.4034 30.2034 22.4682 29.7444 22.5977 29.3445C22.7273 28.9447 22.9131 28.6152 23.1553 28.3562C23.3974 28.0971 23.6959 27.8972 24.0507 27.7564C24.4055 27.6156 24.8082 27.5452 25.2588 27.5452C25.5291 27.5452 25.7938 27.5677 26.0528 27.6128C26.3119 27.6578 26.5766 27.7226 26.8469 27.8071C26.9286 27.8324 27.0159 27.8662 27.1004 27.9V33.0503C27.0272 33.0953 26.9511 33.1404 26.8807 33.1798ZM38.7414 33.9317C38.4372 33.9317 38.2176 33.8416 38.0824 33.6613C37.9473 33.4811 37.8853 33.1826 37.8966 32.7659L37.9304 29.2854C37.9304 28.8912 37.8853 28.5307 37.7952 28.2041C37.7051 27.8775 37.5699 27.5902 37.3897 27.3424C37.2095 27.0946 36.9758 26.8863 36.6886 26.7173C36.4013 26.5483 36.0606 26.4188 35.6664 26.3287C35.2722 26.2386 34.8272 26.1935 34.3316 26.1935C33.9712 26.1935 33.6164 26.2161 33.2672 26.2611C32.918 26.3062 32.5886 26.3709 32.2788 26.4554C31.9691 26.5399 31.6734 26.6384 31.3918 26.7511L31.1891 28.1872C31.4707 28.0858 31.7382 28.0014 31.9916 27.9338C32.245 27.8662 32.49 27.8099 32.7266 27.7648C32.9631 27.7198 33.1968 27.6888 33.4277 27.6719C33.6586 27.655 33.8867 27.6465 34.112 27.6465C34.5175 27.6465 34.8582 27.686 35.1342 27.7648C35.4101 27.8437 35.627 27.9619 35.7846 28.1196C35.9423 28.2773 36.055 28.4772 36.1226 28.7194C36.1901 28.9616 36.2239 29.246 36.2239 29.5726V29.9978L34.2472 30.1302C33.4587 30.1752 32.8054 30.3217 32.2873 30.5695C31.7692 30.8173 31.3834 31.1298 31.1299 31.5072C30.8765 31.8845 30.7498 32.2984 30.7498 32.749C30.7498 33.1995 30.8483 33.574 31.0455 33.9401C31.2426 34.3062 31.5411 34.6019 31.9409 34.8271C32.3408 35.0524 32.8392 35.165 33.4362 35.165C33.9881 35.165 34.464 35.0862 34.8638 34.9285C35.2637 34.7708 35.6185 34.5455 35.9283 34.2527C36.0437 34.1429 36.1535 34.0246 36.2605 33.8979C36.3 34.0865 36.3591 34.2555 36.4436 34.3963C36.6013 34.661 36.8209 34.8525 37.1025 34.9707C37.3841 35.089 37.7051 35.1481 38.0655 35.1481C38.1669 35.1481 38.2655 35.1453 38.3612 35.1397C38.457 35.1341 38.5499 35.12 38.64 35.0975C38.7301 35.0749 38.8118 35.0552 38.885 35.0383C38.9582 35.0214 39.0229 35.0017 39.0793 34.9792L39.2651 33.8472C39.1637 33.881 39.068 33.9035 38.9779 33.9148C38.8878 33.926 38.8089 33.9317 38.7414 33.9317ZM35.9283 33.1714C35.7424 33.3178 35.5453 33.4417 35.3369 33.5431C35.1285 33.6444 34.9089 33.7177 34.678 33.7627C34.4471 33.8078 34.2077 33.8303 33.9599 33.8303C33.6446 33.8303 33.377 33.7796 33.1574 33.6782C32.9378 33.5769 32.7716 33.4333 32.659 33.2474C32.5463 33.0616 32.49 32.8391 32.49 32.58C32.49 32.2421 32.5632 31.9774 32.7097 31.7859C32.8561 31.5945 33.0926 31.4537 33.4193 31.3636C33.7459 31.2734 34.1852 31.2284 34.7371 31.2284H36.2155L36.207 32.9067C36.1197 33.0052 36.0268 33.0953 35.9254 33.1714H35.9283ZM43.7086 33.7289C43.7762 33.7177 43.8438 33.7064 43.9114 33.6951L43.7424 35.0299C43.6636 35.0524 43.565 35.0749 43.4468 35.0975C43.3285 35.12 43.2074 35.1369 43.0835 35.1481C42.9596 35.1594 42.8301 35.165 42.6949 35.165C42.4246 35.165 42.174 35.1341 41.9431 35.0721C41.7122 35.0102 41.5122 34.906 41.3433 34.7595C41.1743 34.6131 41.0448 34.4245 40.9547 34.1936C40.8646 33.9626 40.8195 33.6839 40.8195 33.3572V22.4934L42.5428 22.24V32.5969C42.5428 32.7997 42.5569 32.9743 42.5851 33.1207C42.6132 33.2671 42.6611 33.3882 42.7287 33.4839C42.7963 33.5797 42.8808 33.6501 42.9821 33.6951C43.0835 33.7402 43.2074 33.7627 43.3538 33.7627C43.4214 33.7627 43.4805 33.7627 43.5312 33.7543C43.5819 33.7486 43.6411 33.7402 43.7086 33.7289ZM52.9505 33.9317C52.6463 33.9317 52.4267 33.8416 52.2915 33.6613C52.1564 33.4811 52.0944 33.1826 52.1057 32.7659L52.1395 29.2854C52.1395 28.8912 52.0944 28.5307 52.0043 28.2041C51.9142 27.8775 51.779 27.5902 51.5988 27.3424C51.4186 27.0946 51.1849 26.8863 50.8977 26.7173C50.6104 26.5483 50.2697 26.4188 49.8755 26.3287C49.4813 26.2386 49.0363 26.1935 48.5407 26.1935C48.1803 26.1935 47.8255 26.2161 47.4763 26.2611C47.1272 26.3062 46.7977 26.3709 46.4879 26.4554C46.1782 26.5399 45.8825 26.6384 45.6009 26.7511L45.3982 28.1872C45.6798 28.0858 45.9473 28.0014 46.2007 27.9338C46.4542 27.8662 46.6991 27.8099 46.9357 27.7648C47.1722 27.7198 47.4059 27.6888 47.6368 27.6719C47.8677 27.655 48.0958 27.6465 48.3211 27.6465C48.7266 27.6465 49.0673 27.686 49.3433 27.7648C49.6192 27.8437 49.8361 27.9619 49.9938 28.1196C50.1514 28.2773 50.2641 28.4772 50.3317 28.7194C50.3993 28.9616 50.433 29.246 50.433 29.5726V29.9978L48.4563 30.1302C47.6678 30.1752 47.0145 30.3217 46.4964 30.5695C45.9783 30.8173 45.5925 31.1298 45.339 31.5072C45.0856 31.8845 44.9589 32.2984 44.9589 32.749C44.9589 33.1995 45.0575 33.574 45.2546 33.9401C45.4517 34.3062 45.7502 34.6019 46.15 34.8271C46.5499 35.0524 47.0483 35.165 47.6453 35.165C48.1972 35.165 48.6731 35.0862 49.073 34.9285C49.4728 34.7708 49.8276 34.5455 50.1374 34.2527C50.2528 34.1429 50.3626 34.0246 50.4696 33.8979C50.5091 34.0865 50.5682 34.2555 50.6527 34.3963C50.8104 34.661 51.03 34.8525 51.3116 34.9707C51.5932 35.089 51.9142 35.1481 52.2746 35.1481C52.376 35.1481 52.4746 35.1453 52.5703 35.1397C52.6661 35.1341 52.759 35.12 52.8491 35.0975C52.9392 35.0749 53.0209 35.0552 53.0941 35.0383C53.1673 35.0214 53.2321 35.0017 53.2884 34.9792L53.4742 33.8472C53.3729 33.881 53.2771 33.9035 53.187 33.9148C53.0969 33.926 53.018 33.9317 52.9505 33.9317ZM50.1374 33.1714C49.9515 33.3178 49.7544 33.4417 49.546 33.5431C49.3376 33.6444 49.118 33.7177 48.8871 33.7627C48.6562 33.8078 48.4168 33.8303 48.169 33.8303C47.8537 33.8303 47.5862 33.7796 47.3665 33.6782C47.1469 33.5769 46.9807 33.4333 46.8681 33.2474C46.7555 33.0616 46.6991 32.8391 46.6991 32.58C46.6991 32.2421 46.7723 31.9774 46.9188 31.7859C47.0652 31.5945 47.3017 31.4537 47.6284 31.3636C47.955 31.2734 48.3943 31.2284 48.9462 31.2284H50.4246L50.4161 32.9067C50.3288 33.0052 50.2359 33.0953 50.1345 33.1714H50.1374ZM62.6654 27.6297C62.8794 28.114 62.9864 28.7391 62.9864 29.5051V34.9961H61.263V29.8599C61.263 29.5107 61.2293 29.2066 61.1617 28.9475C61.0941 28.6884 60.9871 28.4744 60.8407 28.3055C60.6942 28.1365 60.5084 28.0098 60.2831 27.9253C60.0578 27.8408 59.7875 27.7986 59.4721 27.7986C59.2469 27.7986 59.0131 27.8183 58.771 27.8577C58.5288 27.8972 58.2866 27.9563 58.0445 28.0351C57.8023 28.114 57.5601 28.2069 57.318 28.3139C57.1377 28.3928 56.966 28.4829 56.8026 28.5786V34.9961H55.0793V26.4639L56.8026 26.2104V27.4185C56.9547 27.2974 57.1124 27.1791 57.2757 27.0721C57.7037 26.7905 58.1571 26.5737 58.6358 26.4216C59.1145 26.2696 59.596 26.1935 60.0804 26.1935C60.7337 26.1935 61.2743 26.3118 61.7023 26.5483C62.1303 26.7849 62.4514 27.1453 62.6654 27.6297ZM71.451 22.4934V26.6047C71.4341 26.599 71.4172 26.5906 71.4003 26.5821C71.1075 26.4695 70.7837 26.3766 70.4288 26.3034C70.074 26.2301 69.6826 26.1935 69.2546 26.1935C68.5 26.1935 67.7988 26.3794 67.1511 26.7511C66.5035 27.1228 65.9825 27.6606 65.5883 28.3646C65.1941 29.0686 64.997 29.9274 64.997 30.9412C64.997 31.8085 65.1462 32.5575 65.4447 33.1883C65.7432 33.819 66.1712 34.3062 66.7287 34.6497C67.2863 34.9933 67.9537 35.165 68.7309 35.165C69.1814 35.165 69.6066 35.1087 70.0065 34.9961C70.4063 34.8834 70.7977 34.7089 71.1807 34.4723C71.3074 34.3935 71.4341 34.3062 71.5609 34.2161L71.772 34.9961H73.1744V22.2569L71.451 22.4934ZM70.5471 33.5515C70.1022 33.7148 69.6995 33.7965 69.3391 33.7965C68.7984 33.7965 68.3366 33.6867 67.9537 33.467C67.5707 33.2474 67.2778 32.9095 67.0751 32.4533C66.8724 31.9971 66.771 31.4255 66.771 30.7384C66.771 30.0513 66.8836 29.4572 67.1089 28.9897C67.3342 28.5223 67.658 28.1675 68.0804 27.9253C68.5028 27.6832 69.0068 27.5621 69.5925 27.5621C69.8741 27.5621 70.1444 27.5818 70.4035 27.6212C70.6626 27.6606 70.9245 27.7226 71.1891 27.8071C71.2708 27.8324 71.3637 27.869 71.451 27.9V33.1066C71.1328 33.2953 70.8315 33.4473 70.5471 33.5515Z" fill="white"/>
</svg>

<svg xmlns="http://www.w3.org/2000/svg" viewBox="0 0 74 41"><path fill="#fff" d="M0 17.998v-12h4v12H0Zm9.244-10.09 2.264 10.09H7.2l-2.704-12h2.417a2.276 2.276 0 0 1 1.513.55c.42.346.66.826.819 1.36ZM12 17.998v-12h4v12h-4Zm7.01-7.436a2.381 2.381 0 0 1-2.078-1.192 2.345 2.345 0 0 1-.321-1.208 2.301 2.301 0 0 1 .321-1.2A2.41 2.41 0 0 1 20.21 6.1c.356.21.653.506.862.862.215.363.326.778.321 1.2a2.35 2.35 0 0 1-.321 1.208 2.4 2.4 0 0 1-.862.87 2.301 2.301 0 0 1-1.2.322ZM22 17.998v-12h4v12h-4Zm8.974-5.442c.01.011.095.15.253.414s.364.602.617 1.014a316.22 316.22 0 0 1 1.597 2.62c.247.41.529.876.845 1.394H29.96c-.27-.44-.516-.837-.736-1.192-.22-.355-.453-.738-.7-1.15-.248-.41-.493-.81-.736-1.199-.242-.39-.45-.73-.625-1.022a18.04 18.04 0 0 0-.363-.592 1.747 1.747 0 0 1-.287-.845c.016-.29.11-.57.27-.811.067-.113.191-.313.371-.6a182.106 182.106 0 0 0 1.37-2.23l.7-1.159.736-1.2h4.326l-3.346 5.46a1.079 1.079 0 0 0-.17.54c.012.202.083.396.204.558ZM5.882 30.049c.231-.037.451-.088.665-.155a3.297 3.297 0 0 0 1.191-.668c.338-.298.603-.67.794-1.115.192-.445.287-.96.287-1.546 0-.653-.126-1.25-.38-1.79-.253-.541-.67-.972-1.25-1.293-.58-.321-1.36-.482-2.34-.482H0v11.996h1.757V30.4h2.585l2.99 4.596h2.062L6.589 30.84l-.704-.791h-.003Zm.031-5.35c.372.151.648.388.828.709.18.32.27.73.27 1.225 0 .552-.11 1-.329 1.343-.22.344-.535.591-.946.743-.411.152-.898.229-1.461.229H1.757V24.47h2.72c.586 0 1.065.076 1.436.228Zm11.126 2.035c-.648-.36-1.41-.54-2.29-.54-.878 0-1.647.185-2.306.557a3.896 3.896 0 0 0-1.537 1.571c-.366.676-.55 1.476-.55 2.4 0 .923.173 1.72.516 2.39.344.67.837 1.18 1.479 1.53.642.348 1.385.523 2.23.523s1.656-.186 2.331-.557a3.935 3.935 0 0 0 1.58-1.589c.377-.687.566-1.498.566-2.433 0-.934-.174-1.664-.524-2.323a3.69 3.69 0 0 0-1.495-1.529Zm-.101 5.66c-.22.473-.527.825-.921 1.056a2.623 2.623 0 0 1-1.352.346c-.507 0-.946-.118-1.318-.354-.371-.237-.664-.592-.878-1.065-.214-.473-.321-1.059-.321-1.757s.107-1.256.32-1.706c.215-.45.516-.789.905-1.014.388-.225.853-.338 1.394-.338.428 0 .797.07 1.106.211.31.141.57.347.778.617.208.27.363.594.464.971.102.378.152.797.152 1.26 0 .709-.11 1.3-.33 1.773Zm9.63-5.98a6.037 6.037 0 0 0-.786-.161 6.581 6.581 0 0 0-.912-.06c-.563 0-1.098.107-1.605.322-.507.214-.96.52-1.36.92-.4.4-.712.896-.938 1.487-.225.591-.338 1.27-.338 2.036 0 .856.144 1.597.431 2.222.288.625.707 1.11 1.259 1.453.552.343 1.222.515 2.01.515.609 0 1.211-.118 1.808-.355.324-.13.645-.312.963-.546v.462c0 .428-.053.802-.16 1.123-.107.321-.27.592-.49.811-.22.22-.507.383-.862.49-.355.107-.785.16-1.292.16a9.39 9.39 0 0 1-1.04-.058 7.33 7.33 0 0 1-1.072-.203 8.156 8.156 0 0 1-1.065-.363l.186 1.487c.304.123.622.228.955.312.332.085.678.15 1.039.194.36.046.732.068 1.115.068.957 0 1.763-.16 2.416-.481.653-.322 1.146-.767 1.478-1.335.333-.57.499-1.225.499-1.969v-8.752l-1.653.426a4.637 4.637 0 0 0-.586-.206Zm.313 6.766c-.226.13-.442.236-.65.32-.21.085-.412.15-.609.195a2.757 2.757 0 0 1-.617.068c-.585 0-1.072-.11-1.461-.33a1.98 1.98 0 0 1-.862-.997c-.186-.445-.279-1.016-.279-1.715 0-.518.065-.977.195-1.377s.315-.729.557-.988c.242-.259.54-.459.896-.6.355-.14.757-.21 1.208-.21.27 0 .535.022.794.067.259.045.524.11.794.194.082.025.169.06.253.093v5.15a6.37 6.37 0 0 1-.22.13Zm11.86.752c-.304 0-.523-.09-.659-.27-.135-.18-.197-.48-.185-.896l.033-3.48a4.06 4.06 0 0 0-.135-1.082 2.647 2.647 0 0 0-.405-.862 2.285 2.285 0 0 0-.701-.625 3.58 3.58 0 0 0-1.023-.388 6.011 6.011 0 0 0-1.334-.136c-.36 0-.716.023-1.065.068-.349.045-.678.11-.988.194-.31.085-.606.183-.887.296l-.203 1.436a9.938 9.938 0 0 1 1.538-.422c.236-.045.47-.076.7-.093.232-.017.46-.026.685-.026.405 0 .746.04 1.022.119.276.079.493.197.65.355.158.157.271.357.339.6.067.242.1.526.1.853v.425l-1.976.132c-.788.045-1.442.192-1.96.44-.518.247-.904.56-1.157.937a2.18 2.18 0 0 0-.38 1.242c0 .45.098.825.296 1.191.197.366.495.662.895.887.4.225.898.338 1.495.338.552 0 1.028-.079 1.428-.236.4-.158.755-.384 1.064-.676.116-.11.226-.228.333-.355.039.188.098.357.183.498.157.265.377.456.658.575.282.118.603.177.964.177.1 0 .2-.003.295-.008.096-.006.189-.02.279-.043l.245-.059a1.34 1.34 0 0 0 .194-.059l.186-1.132a1.504 1.504 0 0 1-.287.068c-.09.011-.17.017-.237.017Zm-2.813-.76c-.186.146-.383.27-.591.371a2.668 2.668 0 0 1-.659.22c-.23.045-.47.067-.718.067-.315 0-.583-.05-.803-.152a1.104 1.104 0 0 1-.498-.43 1.263 1.263 0 0 1-.169-.668c0-.338.073-.603.22-.794.146-.192.383-.332.71-.422.326-.09.765-.136 1.317-.136h1.478l-.008 1.679c-.087.098-.18.188-.282.264h.003Zm7.78.557.203-.034-.169 1.335a3.75 3.75 0 0 1-1.048.135c-.27 0-.52-.03-.75-.093a1.49 1.49 0 0 1-.6-.313 1.412 1.412 0 0 1-.39-.565 2.304 2.304 0 0 1-.135-.837V22.493l1.724-.253v10.357c0 .203.014.377.042.524a.925.925 0 0 0 .144.363.61.61 0 0 0 .253.211.913.913 0 0 0 .372.068c.067 0 .127 0 .177-.009.05-.005.11-.014.178-.025Zm9.242.203c-.304 0-.523-.09-.659-.27-.135-.18-.197-.48-.185-.896l.033-3.48a4.06 4.06 0 0 0-.135-1.082 2.647 2.647 0 0 0-.405-.862 2.285 2.285 0 0 0-.701-.625 3.58 3.58 0 0 0-1.023-.388 6.011 6.011 0 0 0-1.334-.136c-.36 0-.715.023-1.065.068a7.32 7.32 0 0 0-.988.194c-.31.085-.605.183-.887.296l-.203 1.436a9.938 9.938 0 0 1 1.538-.422c.236-.045.47-.076.7-.093.232-.017.46-.026.685-.026.406 0 .746.04 1.022.119.276.079.493.197.65.355.158.157.271.357.339.6.067.242.101.526.101.853v.425l-1.977.132c-.788.045-1.442.192-1.96.44-.518.247-.904.56-1.157.937a2.18 2.18 0 0 0-.38 1.242c0 .45.098.825.296 1.191.197.366.495.662.895.887.4.225.898.338 1.495.338.552 0 1.028-.079 1.428-.236.4-.158.755-.384 1.064-.676.116-.11.226-.228.333-.355.04.188.098.357.183.498.157.265.377.456.659.575.281.118.602.177.963.177.101 0 .2-.003.295-.008.096-.006.189-.02.28-.043l.244-.059c.073-.017.138-.036.194-.059l.186-1.132a1.502 1.502 0 0 1-.287.068c-.09.011-.169.017-.236.017Zm-2.813-.76c-.185.146-.383.27-.591.371a2.668 2.668 0 0 1-.659.22c-.23.045-.47.067-.718.067-.315 0-.583-.05-.802-.152a1.104 1.104 0 0 1-.499-.43 1.264 1.264 0 0 1-.169-.668c0-.338.073-.603.22-.794.146-.192.383-.332.71-.422.326-.09.765-.136 1.317-.136h1.479l-.009 1.679c-.087.098-.18.188-.281.264h.002Zm12.528-5.542c.214.484.321 1.11.321 1.875v5.491h-1.723V29.86c0-.35-.034-.653-.101-.912a1.567 1.567 0 0 0-.321-.643 1.35 1.35 0 0 0-.558-.38 2.313 2.313 0 0 0-.81-.126c-.226 0-.46.02-.702.059-.242.04-.484.098-.727.177a7.688 7.688 0 0 0-.726.279c-.18.079-.352.169-.515.265v6.417h-1.724v-8.532l1.724-.254v1.209c.152-.122.31-.24.473-.347a5.489 5.489 0 0 1 1.36-.65c.478-.152.96-.229 1.444-.229.654 0 1.194.119 1.622.355.428.237.75.597.963 1.082Zm8.786-5.137v4.112a.402.402 0 0 1-.05-.023 6.193 6.193 0 0 0-.972-.279 5.814 5.814 0 0 0-1.174-.11c-.755 0-1.456.186-2.104.558-.647.372-1.168.91-1.563 1.614-.394.704-.591 1.562-.591 2.576 0 .867.15 1.616.448 2.247.298.631.726 1.118 1.284 1.462.557.343 1.225.515 2.002.515.45 0 .876-.056 1.276-.169.4-.113.79-.287 1.174-.524.126-.078.253-.166.38-.256l.211.78h1.402v-12.74l-1.723.237Zm-.904 11.058c-.445.164-.847.245-1.208.245-.54 0-1.002-.11-1.385-.329-.383-.22-.676-.557-.879-1.014-.203-.456-.304-1.028-.304-1.715s.113-1.28.338-1.748c.225-.468.549-.822.971-1.065.423-.242.927-.363 1.513-.363a5.104 5.104 0 0 1 1.597.245c.08.025.174.062.261.093v5.207c-.318.188-.62.34-.904.444Z"/></svg>
